img/technology-img1.svg

<svg width="80" height="84" viewBox="0 0 80 84" fill="none" xmlns="http://www.w3.org/2000/svg">
<path d="M62.7083 84H7.29167C3.26958 84 0 80.7304 0 76.7083V21.2917C0 17.2696 3.26958 14 7.29167 14H62.7083C66.7304 14 70 17.2696 70 21.2917V76.7083C70 80.7304 66.7304 84 62.7083 84ZM7.29167 16.9167C4.87958 16.9167 2.91667 18.8796 2.91667 21.2917V76.7083C2.91667 79.1204 4.87958 81.0833 7.29167 81.0833H62.7083C65.1204 81.0833 67.0833 79.1204 67.0833 76.7083V21.2917C67.0833 18.8796 65.1204 16.9167 62.7083 16.9167H7.29167Z" fill="#36A2F4"/>
<path d="M42.2903 69.4168H27.707C25.2949 69.4168 23.332 67.4539 23.332 65.0418V32.9585C23.332 30.5464 25.2949 28.5835 27.707 28.5835H42.2903C44.7024 28.5835 46.6653 30.5464 46.6653 32.9585V65.0418C46.6653 67.4539 44.7024 69.4168 42.2903 69.4168ZM27.707 31.5002C26.9049 31.5002 26.2487 32.1564 26.2487 32.9585V65.0418C26.2487 65.8439 26.9049 66.5002 27.707 66.5002H42.2903C43.0924 66.5002 43.7487 65.8439 43.7487 65.0418V32.9585C43.7487 32.1564 43.0924 31.5002 42.2903 31.5002H27.707Z" fill="#36A2F4"/>
<path d="M39.3763 60.6667H30.6263C29.8213 60.6667 29.168 60.0133 29.168 59.2083C29.168 58.4033 29.8213 57.75 30.6263 57.75H39.3763C40.1813 57.75 40.8346 58.4033 40.8346 59.2083C40.8346 60.0133 40.1813 60.6667 39.3763 60.6667Z" fill="#36A2F4"/>
</svg>

<svg width="80" height="84" fill="none" xmlns="http://www.w3.org/2000/svg"><path d="M62.708 84H7.292A7.298 7.298 0 010 76.708V21.292A7.298 7.298 0 017.292 14h55.416A7.298 7.298 0 0170 21.292v55.416A7.298 7.298 0 0162.708 84zM7.292 16.917a4.38 4.38 0 00-4.375 4.375v55.416a4.38 4.38 0 004.375 4.375h55.416a4.38 4.38 0 004.375-4.375V21.292a4.38 4.38 0 00-4.375-4.375H7.292z" fill="#36A2F4"/><path d="M42.29 69.417H27.707a4.38 4.38 0 01-4.375-4.375V32.958a4.38 4.38 0 014.375-4.374H42.29a4.38 4.38 0 014.375 4.375v32.083a4.38 4.38 0 01-4.375 4.375zM27.707 31.5c-.802 0-1.458.656-1.458 1.459v32.083c0 .802.656 1.458 1.458 1.458H42.29c.802 0 1.459-.656 1.459-1.458V32.958c0-.802-.657-1.458-1.459-1.458H27.707z" fill="#36A2F4"/><path d="M39.376 60.667h-8.75a1.459 1.459 0 010-2.917h8.75a1.459 1.459 0 010 2.917z" fill="#36A2F4"/></svg>
